X:140
T:Black Dance, The
M:2/4
L:1/8
B:Thompson's Compleat Collection of 200 Favourite Country Dances, vol. 3 (London, 1773)
Z:Transcribed and edited by Flynn Titford-Mock, 2007
Z:abc's:AK/Fiddler's Companion
K:G
d/B/ | GG A/B/c/A/ | d/e/d/c/ B(d/B/) | GG A/B/c/A/ | d/e/d/c/ B(e/f/) | gg g(f/e/) | dd d(c/B/) |
G(A/B/) c(B/A/) | GG G(e/f/) | gg g(f/e/) | dd d(c/B/) | G(A/B/) c(B/A/) | GGG |]

